X:202
T:Handy, Me Boys (Handy, Me Girls) (a)
M:C|
L:1/8
K:C#M
P:A%INTRO
B2|\
(Bc)BG E2G2|B2 B4 B2|F2G2 (AG)F2|G2G2 B4|
(FG)FD E2F2|G2 c4||
P:B
c2|\
B2B2 B2A2|G2E2 B4|(Bc)BG E2G2|B2 B4 B2|
F2G2 (AG)F2|G2A2 B4|(FG)FD E2F2|G2 c4||
